X: 1
T: Booth Shot Lincoln
R: reel
Z: 2020 John Chambers <jc:trillian.mit.edu>
S: https://www.facebook.com/groups/Fiddletuneoftheday/ 2020-11-21
S: https://www.facebook.com/groups/Fiddletuneoftheday/photos/
M: 2/4
L: 1/16
K: A
|: "A"EDEF E2EF | "D"A2AB A2AB | "A"cBcB cBA2 | "F#m"F6 F2 |
|  "A"EDEF E2EF | "D"AFAB A2f2 | "A"e2c2 "E"BcB2 |1 "A"A4 F4 :|2 "A"A6 B2 ||
|: "A"c2e2- e2e2 | "D"f2a2-  a2f2 | "A"e2c2 BcBA | "F#m"F4 F2B2 |
[1 "A"c2e2- e2e2 | "D"(f2a2) a2f2 | "A"e2c2 "E"BcB2 | "A"A4 A2B2 :|
[2 "A"EDEF E2EF | "D"AFAB A2f2 | "A"e2c2 "E"BcB2 | "A"A4 |]
